src/views/svg/alert.svg

<svg xmlns="http://www.w3.org/2000/svg" width="30" height="30" viewBox="0 0 37.5 37.5" preserveAspectRatio="xMidYMid meet" version="1.0"><defs><clipPath id="6d151c2902"><path d="M 0.0351562 2.242188 L 37 2.242188 L 37 34.808594 L 0.0351562 34.808594 Z M 0.0351562 2.242188 " clip-rule="nonzero"/></clipPath></defs><g clip-path="url(#6d151c2902)"><path fill="#ffffff" d="M 18.539062 27.277344 C 18.269531 27.277344 18.011719 27.332031 17.761719 27.433594 C 17.511719 27.539062 17.289062 27.683594 17.101562 27.875 C 16.910156 28.066406 16.761719 28.289062 16.660156 28.539062 C 16.554688 28.789062 16.503906 29.046875 16.503906 29.316406 C 16.503906 29.589844 16.554688 29.847656 16.660156 30.097656 C 16.761719 30.347656 16.910156 30.566406 17.101562 30.757812 C 17.292969 30.949219 17.515625 31.097656 17.761719 31.199219 C 18.011719 31.304688 18.273438 31.355469 18.542969 31.355469 C 18.8125 31.355469 19.074219 31.304688 19.324219 31.199219 C 19.574219 31.097656 19.792969 30.949219 19.984375 30.757812 C 20.175781 30.566406 20.324219 30.347656 20.425781 30.097656 C 20.53125 29.847656 20.582031 29.585938 20.582031 29.316406 C 20.582031 29.046875 20.527344 28.785156 20.425781 28.535156 C 20.320312 28.285156 20.175781 28.066406 19.984375 27.875 C 19.792969 27.683594 19.570312 27.535156 19.320312 27.433594 C 19.070312 27.328125 18.8125 27.277344 18.539062 27.277344 Z M 18.601562 10.632812 L 18.480469 10.632812 C 18.175781 10.632812 17.882812 10.691406 17.605469 10.8125 C 17.324219 10.933594 17.078125 11.105469 16.871094 11.324219 C 16.660156 11.546875 16.503906 11.800781 16.398438 12.085938 C 16.292969 12.371094 16.25 12.667969 16.265625 12.972656 L 16.945312 25.335938 C 16.957031 25.53125 17.003906 25.71875 17.085938 25.894531 C 17.167969 26.074219 17.28125 26.230469 17.421875 26.363281 C 17.5625 26.5 17.726562 26.601562 17.90625 26.675781 C 18.089844 26.746094 18.277344 26.785156 18.472656 26.785156 L 18.605469 26.785156 C 18.800781 26.785156 18.992188 26.746094 19.171875 26.675781 C 19.355469 26.601562 19.515625 26.5 19.660156 26.363281 C 19.800781 26.230469 19.914062 26.074219 19.996094 25.894531 C 20.078125 25.71875 20.125 25.53125 20.136719 25.335938 L 20.816406 12.972656 C 20.832031 12.667969 20.785156 12.371094 20.683594 12.085938 C 20.578125 11.800781 20.417969 11.546875 20.210938 11.324219 C 20 11.105469 19.757812 10.933594 19.476562 10.8125 C 19.195312 10.691406 18.90625 10.632812 18.601562 10.632812 Z M 35.5625 32.878906 C 35.445312 33.097656 35.277344 33.269531 35.058594 33.394531 C 34.84375 33.519531 34.613281 33.578125 34.363281 33.574219 L 2.722656 33.574219 C 2.183594 33.574219 1.785156 33.34375 1.515625 32.878906 C 1.25 32.414062 1.25 31.953125 1.519531 31.488281 L 17.335938 4.089844 C 17.605469 3.625 18.003906 3.390625 18.542969 3.390625 C 19.078125 3.390625 19.480469 3.625 19.746094 4.089844 L 35.5625 31.488281 C 35.695312 31.703125 35.757812 31.933594 35.757812 32.183594 C 35.757812 32.433594 35.695312 32.664062 35.5625 32.878906 Z M 20.738281 3.515625 L 36.558594 30.914062 C 36.785156 31.308594 36.898438 31.730469 36.898438 32.183594 C 36.898438 32.636719 36.785156 33.058594 36.558594 33.453125 C 36.332031 33.84375 36.023438 34.15625 35.632812 34.382812 C 35.238281 34.609375 34.816406 34.722656 34.363281 34.722656 L 2.722656 34.722656 C 2.269531 34.722656 1.84375 34.609375 1.453125 34.382812 C 1.058594 34.15625 0.75 33.847656 0.523438 33.453125 C 0.296875 33.0625 0.183594 32.636719 0.183594 32.183594 C 0.183594 31.730469 0.296875 31.308594 0.523438 30.914062 L 16.34375 3.515625 C 16.457031 3.320312 16.589844 3.148438 16.746094 2.988281 C 16.90625 2.832031 17.078125 2.699219 17.273438 2.585938 C 17.464844 2.476562 17.667969 2.390625 17.882812 2.332031 C 18.097656 2.273438 18.316406 2.246094 18.539062 2.246094 C 18.761719 2.246094 18.984375 2.273438 19.199219 2.332031 C 19.414062 2.390625 19.617188 2.476562 19.808594 2.585938 C 20.003906 2.699219 20.175781 2.832031 20.335938 2.988281 C 20.492188 3.148438 20.625 3.320312 20.738281 3.515625 Z M 20.738281 3.515625 " fill-opacity="1" fill-rule="evenodd"/></g></svg>

<svg xmlns="http://www.w3.org/2000/svg" width="30" height="30" viewBox="0 0 37.5 37.5" version="1.0"><defs><clipPath id="prefix__a"><path d="M.035 2.242H37V34.81H.035zm0 0"/></clipPath></defs><g clip-path="url(#prefix__a)"><path fill="#fff" d="M18.54 27.277a2.046 2.046 0 00-1.438.598c-.192.191-.34.414-.442.664-.105.25-.156.508-.156.777 0 .274.05.532.156.782.102.25.25.468.442.66.191.191.414.34.66.441.25.106.511.156.781.156s.531-.05.781-.156c.25-.101.469-.25.66-.441.192-.192.34-.41.442-.66.105-.25.156-.512.156-.782s-.055-.53-.156-.78a2.04 2.04 0 00-1.887-1.259zm.062-16.644h-.122c-.304 0-.597.058-.875.18a2.202 2.202 0 00-1.207 1.273 2.208 2.208 0 00-.132.887l.68 12.363a1.53 1.53 0 00.476 1.027 1.517 1.517 0 001.05.422h.133a1.554 1.554 0 001.055-.422 1.53 1.53 0 00.477-1.027l.68-12.363a2.278 2.278 0 00-.133-.887 2.269 2.269 0 00-.473-.762 2.242 2.242 0 00-.734-.511 2.18 2.18 0 00-.875-.18zm16.96 22.246a1.28 1.28 0 01-.503.516 1.312 1.312 0 01-.696.18H2.723c-.54 0-.938-.231-1.207-.696-.266-.465-.266-.926.004-1.39l15.816-27.4c.27-.464.668-.698 1.207-.698.535 0 .937.234 1.203.699l15.817 27.398c.132.215.195.446.195.696 0 .25-.063.48-.196.695zM20.739 3.516l15.82 27.398c.227.395.34.816.34 1.27 0 .453-.113.875-.34 1.27a2.517 2.517 0 01-2.195 1.269H2.723c-.453 0-.88-.114-1.27-.34a2.47 2.47 0 01-.93-.93 2.494 2.494 0 01-.34-1.27c0-.453.114-.874.34-1.269l15.82-27.398c.114-.196.247-.368.403-.528a2.61 2.61 0 011.137-.656c.215-.059.433-.086.656-.086a2.51 2.51 0 011.27.34c.195.113.367.246.527.402.156.16.289.332.402.528zm0 0" fill-rule="evenodd"/></g></svg>
